Yaru++/apps/scalable/dropbox.svg

<svg height="226" viewBox="0 0 226 226" width="226" xmlns="http://www.w3.org/2000/svg" xmlns:xlink="http://www.w3.org/1999/xlink">
  <filter id="filter1262" color-interpolation-filters="sRGB" height="1.119" width="1.156" x="-.08" y="-.06">
    <feGaussianBlur stdDeviation="1.932"/>
  </filter>
  <filter id="filter1266" color-interpolation-filters="sRGB" height="1.126" width="1.155" x="-.08" y="-.06">
    <feGaussianBlur stdDeviation="1.932"/>
  </filter>
  <filter id="filter1270" color-interpolation-filters="sRGB" height="1.051" width="1.046" x="-.02" y="-.03">
    <feGaussianBlur stdDeviation="1.932"/>
  </filter>
  <filter id="filter1274" color-interpolation-filters="sRGB" height="1.065" width="1.046" x="-.02" y="-.03">
    <feGaussianBlur stdDeviation="1.932"/>
  </filter>
  <filter id="filter1278" color-interpolation-filters="sRGB" height="1.118" width="1.078" x="-.04" y="-.06">
    <feGaussianBlur stdDeviation="1.932"/>
  </filter>
  <filter id="filter1282" color-interpolation-filters="sRGB" height="1.118" width="1.155" x="-.08" y="-.06">
    <feGaussianBlur stdDeviation="1.932"/>
  </filter>
  <filter id="filter1286" color-interpolation-filters="sRGB" height="1.238" width="1.078" x="-.04" y="-.12">
    <feGaussianBlur stdDeviation="1.932"/>
  </filter>
  <g fill="#090909">
    <path d="m115 51.729164v73.684886l4.21548.73245 55.21809-33.242201-.0228-14.505219-46.44202-30.436196c-3.11382.80385-6.74782 1.914831-12.96878 3.76628z" filter="url(#filter1262)" opacity=".3"/>
    <path d="m115 51.729164c-7.29202 2.170217-15.201823 4.414066-15.201823 4.414066l-44.710287 20.439454.950523 16.321615 51.425797 31.197921 7.53579 1.31183z" filter="url(#filter1266)" opacity=".3"/>
    <path d="m73.962264 21.67923-58.962264 33.707554v4.5l41.037736 33.018865 58.962264-36.792452v-4.5zm-58.962264 103.30189 58.962264 38.67924 41.037736-34.43394v-4.5l-58.962264-31.820771-41.037736 27.575471zm100 4.2453 41.50945 34.43394 58.49055-38.20756v-4.5l-40.56605-28.047151-59.43395 31.820771zm100-69.339636v-4.5l-58.49055-33.707554-41.50945 29.933967v4.5l59.43395 36.792452zm-99.52832 76.886776-41.509416 34.43399-17.295596-11.65699v8.94944l58.333032 34.72005 60.0003-34.72005v-4.34264l-18.49055 7.05019z" filter="url(#filter1270)" opacity=".3"/>
    <path d="m73.962264 17.179232-58.962264 38.207552 41.037736 33.018864 58.962264-36.792451zm-58.962264 103.301888 58.962264 38.67926 41.037736-34.43396-58.962264-36.320772zm100 4.2453 41.50945 34.43396 58.49055-38.20758-40.56605-32.547152zm100-69.339636-58.49055-38.207552-41.50945 34.433965 59.43395 36.792451z" filter="url(#filter1274)" opacity=".3"/>
    <path d="m115 124.72642c-71.11111 63.62682-35.555555 31.81341 0 0zm0 0-41.037736 34.43396-17.295596-11.39897v20.73859l58.805012 35 59.52832-35v-21.41916l-18.49055 12.07954z" filter="url(#filter1278)" opacity=".3"/>
    <path d="m114.9997 203.22005.47198.27995 59.52802-35v-21.41926l-18.48962 12.08008-41.51038-34.43359z" filter="url(#filter1282)" opacity=".3"/>
    <path d="m56.666668 152.26182 17.295596 11.39854 41.037736-34.43394v-4.5l-41.037736 34.43396-17.295596-11.39897zm58.333332-23.0354 41.50945 34.43394 18.49055-12.06656v-4.51296l-18.49055 12.07954-41.50945-34.43396z" filter="url(#filter1286)" opacity=".3"/>
  </g>
  <path d="m115 51.729164v73.684886l4.21548.73245 55.21809-33.242201-.0228-14.505219-46.44202-30.436196c-3.11382.80385-6.74782 1.914831-12.96878 3.76628z" fill="#80a3fa"/>
  <path d="m115 51.729164c-7.29202 2.170217-15.201823 4.414066-15.201823 4.414066l-44.710287 20.439454.950523 16.321615 51.425797 31.197921 7.53579 1.31183z" fill="#a2bcfe"/>
  <path d="m73.962264 21.67923-58.962264 33.707554v4.5l41.037736 33.018865 58.962264-36.792452v-4.5zm-58.962264 103.30189 58.962264 38.67924 41.037736-34.43394v-4.5l-58.962264-31.820771-41.037736 27.575471zm100 4.2453 41.50945 34.43394 58.49055-38.20756v-4.5l-40.56605-28.047151-59.43395 31.820771zm100-69.339636v-4.5l-58.49055-33.707554-41.50945 29.933967v4.5l59.43395 36.792452zm-99.52832 76.886776-41.509416 34.43399-17.295596-11.65699v8.94944l58.333032 34.72005 60.0003-34.72005v-4.34264l-18.49055 7.05019z" fill="#0f1a28" opacity=".2"/>
  <path d="m73.962264 17.179232-58.962264 38.207552 41.037736 33.018864 58.962264-36.792451zm-58.962264 103.301888 58.962264 38.67926 41.037736-34.43396-58.962264-36.320772zm100 4.2453 41.50945 34.43396 58.49055-38.20758-40.56605-32.547152zm100-69.339636-58.49055-38.207552-41.50945 34.433965 59.43395 36.792451z" fill="#5884f4"/>
  <path d="m115 124.72642c-71.11111 63.62682-35.555555 31.81341 0 0zm0 0-41.037736 34.43396-17.295596-11.39897v20.73859l58.805012 35 59.52832-35v-21.41916l-18.49055 12.07954z" fill="#2f5fdd"/>
  <path d="m114.9997 203.22005.47198.27995 59.52802-35v-21.41926l-18.48962 12.08008-41.51038-34.43359z" fill="#234db8"/>
  <path d="m56.666668 152.26182 17.295596 11.39854 41.037736-34.43394v-4.5l-41.037736 34.43396-17.295596-11.39897zm58.333332-23.0354 41.50945 34.43394 18.49055-12.06656v-4.51296l-18.49055 12.07954-41.50945-34.43396z" fill="#0f1a28" opacity=".2"/>
  <path d="m73.962264 17.179232-58.96094 38.207031 1.37695 1.107422 57.58399-37.314453 39.671866 33.287109 1.36719-.853516zm41.039056 34.433593 1.38086.855469 40.12891-33.289062 57.12695 37.316406 1.36328-1.109375-58.49023-38.207031zm-60.224606 37.779296-39.77539 31.087889 1.39062.91211 39.64649-30.986329zm1.26172 1.01367 57.587886 35.472659 1.375-1.15234-57.349606-35.326179zm58.962886 34.320319 1.38867 1.15234 58.04493-35.472659-1.625-1.00586zm59.4336-34.320319 39.1914 31.445319 1.375-.89844-39.32812-31.554689z" fill="#fff" opacity=".3"/>
  <path d="m113.63313 50.467458-57.5957 35.939452 1.61328.99414 57.34961-35.787108zm1.36719 1.146484 57.80859 35.787108 1.625-.99414-58.05273-35.937499zm59.43359 34.792968 1.23828.99219 39.32813-32.011721-1.36328-.890625zm-118.39648 0-39.66016-31.912109-1.37695.892578 39.77539 32.005861zm-39.64649 32.98633-1.39062 1.08789 58.96289 38.67969 41.03711-34.4336-1.375-.8457-39.66211 33.2793zm98.60938 5.33398 41.50976 34.4336 58.49024-38.20703-1.375-1.10157-57.11524 37.3086-40.12109-33.28125z" opacity=".2"/>
  <path d="m56.665044 166.5v2l58.806636 35 59.52734-35v-2l-59.52734 35z" opacity=".2"/>
</svg>

<svg xmlns="http://www.w3.org/2000/svg" width="226" height="226" version="1.1" viewBox="0 0 226 226">
 <defs>
  <filter style="color-interpolation-filters:sRGB" id="filter1262" width="1.156" height="1.119" x="-.08" y="-.06">
   <feGaussianBlur id="feGaussianBlur1264" stdDeviation="1.932"/>
  </filter>
  <filter style="color-interpolation-filters:sRGB" id="filter1266" width="1.155" height="1.126" x="-.08" y="-.06">
   <feGaussianBlur id="feGaussianBlur1268" stdDeviation="1.932"/>
  </filter>
  <filter style="color-interpolation-filters:sRGB" id="filter1270" width="1.046" height="1.051" x="-.02" y="-.03">
   <feGaussianBlur id="feGaussianBlur1272" stdDeviation="1.932"/>
  </filter>
  <filter style="color-interpolation-filters:sRGB" id="filter1274" width="1.046" height="1.065" x="-.02" y="-.03">
   <feGaussianBlur id="feGaussianBlur1276" stdDeviation="1.932"/>
  </filter>
  <filter style="color-interpolation-filters:sRGB" id="filter1278" width="1.078" height="1.118" x="-.04" y="-.06">
   <feGaussianBlur id="feGaussianBlur1280" stdDeviation="1.932"/>
  </filter>
  <filter style="color-interpolation-filters:sRGB" id="filter1282" width="1.155" height="1.118" x="-.08" y="-.06">
   <feGaussianBlur id="feGaussianBlur1284" stdDeviation="1.932"/>
  </filter>
  <filter style="color-interpolation-filters:sRGB" id="filter1286" width="1.078" height="1.238" x="-.04" y="-.12">
   <feGaussianBlur id="feGaussianBlur1288" stdDeviation="1.932"/>
  </filter>
 </defs>
 <path d="m 115,51.729164 v 73.684886 l 4.21548,0.73245 55.21809,-33.242201 -0.0228,-14.505219 -46.44202,-30.436196 c -3.11382,0.80385 -6.74782,1.914831 -12.96878,3.76628 z" style="fill:#090909;opacity:0.3;filter:url(#filter1262)"/>
 <path d="M 115,51.729164 C 107.70798,53.899381 99.798177,56.14323 99.798177,56.14323 L 55.08789,76.582684 56.038413,92.904299 107.46421,124.10222 115,125.41405 Z" style="fill:#090909;opacity:0.3;filter:url(#filter1266)"/>
 <path d="M 73.962264,21.67923 15,55.386784 v 4.5 L 56.037736,92.905649 115,56.113197 v -4.5 z M 15,124.98112 73.962264,163.66036 115,129.22642 v -4.5 L 56.037736,92.905649 15,120.48112 Z m 100,4.2453 41.50945,34.43394 L 215,125.4528 v -4.5 L 174.43395,92.905649 115,124.72642 Z M 215,59.886784 v -4.5 L 156.50945,21.67923 115,51.613197 v 4.5 l 59.43395,36.792452 z M 115.47168,136.77356 73.962264,171.20755 56.666668,159.55056 V 168.5 L 114.9997,203.22005 175,168.5 v -4.34264 l -18.49055,7.05019 z" style="opacity:0.3;fill:#090909;filter:url(#filter1270)"/>
 <path d="M 73.962264,17.179232 15,55.386784 56.037736,88.405648 115,51.613197 Z M 15,120.48112 73.962264,159.16038 115,124.72642 56.037736,88.405648 Z m 100,4.2453 41.50945,34.43396 L 215,120.9528 174.43395,88.405648 Z M 215,55.386784 156.50945,17.179232 115,51.613197 174.43395,88.405648 Z" style="fill:#090909;opacity:0.3;filter:url(#filter1274)"/>
 <path d="m 115,124.72642 c -71.11111,63.62682 -35.555555,31.81341 0,0 z m 0,0 -41.037736,34.43396 -17.295596,-11.39897 V 168.5 l 58.805012,35 L 175,168.5 v -21.41916 l -18.49055,12.07954 z" style="fill:#090909;opacity:0.3;filter:url(#filter1278)"/>
 <path d="m 114.9997,203.22005 0.47198,0.27995 59.52802,-35 v -21.41926 l -18.48962,12.08008 -41.51038,-34.43359 z" style="fill:#090909;opacity:0.3;filter:url(#filter1282)"/>
 <path d="M 56.666668,152.26182 73.962264,163.66036 115,129.22642 v -4.5 L 73.962264,159.16038 56.666668,147.76141 Z M 115,129.22642 156.50945,163.66036 175,151.5938 v -4.51296 L 156.50945,159.16038 115,124.72642 Z" style="opacity:0.3;fill:#090909;filter:url(#filter1286)"/>
 <path style="fill:#80a3fa" d="m 115,51.729164 v 73.684886 l 4.21548,0.73245 55.21809,-33.242201 -0.0228,-14.505219 -46.44202,-30.436196 c -3.11382,0.80385 -6.74782,1.914831 -12.96878,3.76628 z"/>
 <path style="fill:#a2bcfe" d="M 115,51.729164 C 107.70798,53.899381 99.798177,56.14323 99.798177,56.14323 L 55.08789,76.582684 56.038413,92.904299 107.46421,124.10222 115,125.41405 Z"/>
 <path style="opacity:0.2;fill:#0f1a28" d="M 73.962264,21.67923 15,55.386784 v 4.5 L 56.037736,92.905649 115,56.113197 v -4.5 z M 15,124.98112 73.962264,163.66036 115,129.22642 v -4.5 L 56.037736,92.905649 15,120.48112 Z m 100,4.2453 41.50945,34.43394 L 215,125.4528 v -4.5 L 174.43395,92.905649 115,124.72642 Z M 215,59.886784 v -4.5 L 156.50945,21.67923 115,51.613197 v 4.5 l 59.43395,36.792452 z M 115.47168,136.77356 73.962264,171.20755 56.666668,159.55056 V 168.5 L 114.9997,203.22005 175,168.5 v -4.34264 l -18.49055,7.05019 z"/>
 <path style="fill:#5884f4" d="M 73.962264,17.179232 15,55.386784 56.037736,88.405648 115,51.613197 Z M 15,120.48112 73.962264,159.16038 115,124.72642 56.037736,88.405648 Z m 100,4.2453 41.50945,34.43396 L 215,120.9528 174.43395,88.405648 Z M 215,55.386784 156.50945,17.179232 115,51.613197 174.43395,88.405648 Z"/>
 <path style="fill:#2f5fdd" d="m 115,124.72642 c -71.11111,63.62682 -35.555555,31.81341 0,0 z m 0,0 -41.037736,34.43396 -17.295596,-11.39897 V 168.5 l 58.805012,35 L 175,168.5 v -21.41916 l -18.49055,12.07954 z"/>
 <path style="fill:#234db8" d="m 114.9997,203.22005 0.47198,0.27995 59.52802,-35 v -21.41926 l -18.48962,12.08008 -41.51038,-34.43359 z"/>
 <path style="opacity:0.2;fill:#0f1a28" d="M 56.666668,152.26182 73.962264,163.66036 115,129.22642 v -4.5 L 73.962264,159.16038 56.666668,147.76141 Z M 115,129.22642 156.50945,163.66036 175,151.5938 v -4.51296 L 156.50945,159.16038 115,124.72642 Z"/>
 <path style="fill:#ffffff;opacity:0.3" d="m 73.962264,17.179232 -58.96094,38.207031 1.37695,1.107422 57.58399,-37.314453 39.671866,33.287109 1.36719,-0.853516 z m 41.039056,34.433593 1.38086,0.855469 40.12891,-33.289062 57.12695,37.316406 1.36328,-1.109375 -58.49023,-38.207031 z m -60.224606,37.779296 -39.77539,31.087889 1.39062,0.91211 39.64649,-30.986329 z m 1.26172,1.01367 57.587886,35.472659 1.375,-1.15234 -57.349606,-35.326179 z m 58.962886,34.320319 1.38867,1.15234 58.04493,-35.472659 -1.625,-1.00586 z m 59.4336,-34.320319 39.1914,31.445319 1.375,-0.89844 -39.32812,-31.554689 z"/>
 <path style="opacity:0.2" d="m 113.63313,50.467458 -57.5957,35.939452 1.61328,0.99414 57.34961,-35.787108 z m 1.36719,1.146484 57.80859,35.787108 1.625,-0.99414 -58.05273,-35.937499 z m 59.43359,34.792968 1.23828,0.99219 39.32813,-32.011721 -1.36328,-0.890625 z m -118.39648,0 -39.66016,-31.912109 -1.37695,0.892578 39.77539,32.005861 z m -39.64649,32.98633 -1.39062,1.08789 58.96289,38.67969 41.03711,-34.4336 -1.375,-0.8457 -39.66211,33.2793 z m 98.60938,5.33398 41.50976,34.4336 58.49024,-38.20703 -1.375,-1.10157 -57.11524,37.3086 -40.12109,-33.28125 z"/>
 <path style="opacity:0.2" d="m 56.665044,166.5 v 2 l 58.806636,35 59.52734,-35 v -2 l -59.52734,35 z"/>
</svg>
